X: 5
T:Balmoral Castle
M:4/4
L:1/8
C:J. Scott Skinner
R:March
O:a//A/g/A/
K:A
E|"A"{G}[A2A2] c>A EACE|"D"{C}[D2D2]"Bm"B>A "E"A/G/F/E/ FG|"A"{G}[A2A2]
c>A 
EACA,|"D"D/E/F/D/ "E"B,G "A"{G}(A2A):||!
e|"A"{g}a2 ef/g/ aecA|"D"{C}[D2D2]"E"B>A A/G/F/E/ ef/g/|"A"{g}a2 ef/g/ a
ecA
|"D"D/E/F/D/ "E"B,G "A"{G}(A2A) e|!
"A"ag/f/ ef/g/ aecA|"D"{C}[D2D2]"E"B>A A/G/F/E/ FG|"A"{G}[A2A2] c>A EACA
,|"
D"D/E/F/D/ "E"B,G "A"{G}(A2A)||!
"Var"E|"A"A/B/c/d/ c/B/A/G/ E/F/G/A/ C/E/A,/C/|"D"D/C/D/F/ d/c/B/A/ "E"A
/G/
F/E/ e/d/c/B/|
"A"A/B/c/d/ c/B/A/G/ E/F/G/A/ C/E/A,/C/|"D"D/E/F/D/ "E"B,G "A"{G}(A2A):|
|e|"A"a/e/c/A/ G/A/c/e/ a/g/f/e/ d/c/B/A/|"D"D/C/D/F/ d/c/B/A/ "E"A/G/F/
E/ ^
d/e/f/g/|!
"A"a/e/c/A/ G/A/c/e/ a/g/f/e/ d/c/B/A/|"D"D/E/F/D/ "E"B,G "A"{G}(A2A) e|
"A"a/A/f/A/ e/A/c/A/ a/g/f/e/ d/c/B/A/|!"D"D/C/D/F/ d/c/B/A/ "E"A/G/F/E/
 e/
d
/c/B/|
"A"(A/B/)c/A/ (E/G/)A/E/ (C/D/)E/C/ (A/E/)C/A,/|"D"D/E/F/D/ "E"B,G "A"{G
}(A2A) ||
